packages/foundations/assets/icons/functional/images/transportation/electric_car_16.svg

<svg width="16" height="16" viewBox="0 0 16 16" fill="none" xmlns="http://www.w3.org/2000/svg">
<g clip-path="url(#clip0_187_911)">
<path fill-rule="evenodd" clip-rule="evenodd" d="M8.79998 1.59282C9.2418 1.59282 9.59998 1.95099 9.59998 2.39282C9.59998 2.80309 9.26442 3.19215 8.79998 3.19282C7.61625 3.19453 6.43247 3.19457 5.24864 3.19294C5.16706 3.19282 5.11309 3.25452 5.09465 3.32217C5.05995 3.47103 4.89319 4.22791 4.59438 5.59282L7.27391 5.59286C7.43022 5.16952 7.91002 4.79282 8.39998 4.79282C8.5352 4.79102 8.66854 4.79102 8.79998 4.79282C8.79419 4.38851 9.07277 3.99348 9.59998 3.99348C9.59998 3.99348 10.4 3.99348 12 3.99348C12.4 3.99282 12.8 4.39282 12.7942 4.80705L13.2 4.8085C13.8237 4.8085 14.4 5.30815 14.4 5.99282C14.4 6.79282 14.4 9.19282 14.4 13.1928C14.4 13.8166 13.9061 14.392 13.2 14.3928C11.6 14.3946 10 14.3998 8.39998 14.4085C7.77622 14.4085 7.20173 13.8965 7.19998 13.2085C7.19824 12.5273 7.19824 11.8554 7.19998 11.1928C6.27548 11.1167 5.47548 11.033 4.79998 10.9416C4.79998 11.0904 4.79998 11.4408 4.79998 11.9928H2.79998L2.79958 9.57683C2.76705 9.48363 2.70869 9.21344 2.70006 9.13792C2.62603 8.48978 2.55373 7.84142 2.48318 7.19282H2.11856C1.82253 7.19282 1.59998 6.93575 1.59998 6.64135V6.10802C1.59998 5.81309 1.82253 5.59282 2.11856 5.59282H2.95678L3.53202 2.9784C3.69767 2.22543 4.32728 1.59402 5.16706 1.59282C6.378 1.59109 7.58897 1.59109 8.79998 1.59282ZM12.8 6.40802H8.79998V12.808H12.8V6.40802ZM10.5888 7.52984C10.7398 7.23484 11.1013 7.11804 11.3963 7.26897C11.6667 7.40732 11.8257 7.75054 11.6572 8.0764C11.5394 8.30828 11.3843 8.61109 11.192 8.98482L11.4103 8.98376C11.8445 8.98035 12.1703 9.44707 11.9376 9.87856C11.8192 10.0883 11.4781 10.693 10.9143 11.6924C10.7515 11.981 10.3855 12.083 10.0969 11.9202C9.83235 11.7709 9.69992 11.4264 9.86915 11.1028C9.96071 10.9388 10.1318 10.635 10.3824 10.1912L10.2119 10.1932C9.78952 10.1965 9.45642 9.75939 9.67301 9.31995C9.80377 9.06835 10.1091 8.47165 10.5888 7.52984ZM4.73508 7.20833C4.4122 7.13379 4.09003 7.33511 4.01549 7.65798C3.94716 7.95395 4.11062 8.24933 4.38704 8.35392L5.63438 8.64752C5.95726 8.72206 6.27943 8.52074 6.35397 8.19787C6.42231 7.90189 6.25884 7.60652 5.98242 7.50192L4.73508 7.20833Z" fill="#1A1C1F"/>
</g>
<defs>
<clipPath id="clip0_187_911">
<rect width="16" height="16" fill="white"/>
</clipPath>
</defs>
</svg>

<svg xmlns="http://www.w3.org/2000/svg" width="16" height="16" fill="none"><g clip-path="url(#a)"><path fill="#1A1C1F" fill-rule="evenodd" d="M8.8 1.593a.8.8 0 0 1 0 1.6q-1.776.003-3.551 0c-.082 0-.136.062-.154.13q-.053.222-.5 2.27h2.679c.156-.423.636-.8 1.126-.8q.203-.003.4 0c-.006-.404.273-.8.8-.8H12c.4 0 .8.4.794.814l.406.002c.624 0 1.2.5 1.2 1.184v7.2c0 .624-.494 1.199-1.2 1.2q-2.4.003-4.8.015a1.21 1.21 0 0 1-1.2-1.2q-.003-1.021 0-2.015a47 47 0 0 1-2.4-.251v1.05h-2V9.578a4 4 0 0 1-.1-.44q-.11-.971-.217-1.944H2.12c-.296 0-.519-.257-.519-.552v-.533c0-.295.223-.515.519-.515h.838l.575-2.615c.166-.753.795-1.384 1.635-1.385q1.817-.003 3.633 0m4 4.815h-4v6.4h4zM10.589 7.53a.6.6 0 0 1 .807-.261c.27.138.43.482.261.807l-.465.909.218-.001a.6.6 0 0 1 .528.895l-1.024 1.813a.6.6 0 0 1-1.045-.59l.513-.91-.17.001a.597.597 0 0 1-.539-.873q.196-.378.916-1.79m-5.854-.322a.6.6 0 0 0-.348 1.146l1.247.294a.6.6 0 0 0 .348-1.146z" clip-rule="evenodd"/></g><defs><clipPath id="a"><path fill="#fff" d="M0 0h16v16H0z"/></clipPath></defs></svg>
